src/images/icons/email.svg

<svg xmlns="http://www.w3.org/2000/svg" width="24" height="24" viewBox="0 0 24 24"><path d="M12 .02c-6.627 0-12 5.373-12 12s5.373 12 12 12 12-5.373 12-12-5.373-12-12-12zm6.99 6.98l-6.99 5.666-6.991-5.666h13.981zm.01 10h-14v-8.505l7 5.673 7-5.672v8.504z"/></svg>

<svg xmlns="http://www.w3.org/2000/svg" width="24" height="24" viewBox="0 0 24 24">
  <g fill="none">
    <path d="M12 0C5.4 0 0 5.4 0 12 0 18.6 5.4 24 12 24 18.6 24 24 18.6 24 12 24 5.4 18.6 0 12 0ZM19 7L12 12.7 5 7 19 7ZM19 17L5 17 5 8.5 12 14.2 19 8.5 19 17Z" fill="#FFF"/>
  </g>
</svg>
